X: 14034
T: GUY'S REEL
C: Bob McQuillen May'08
B: Bob's Note Book 14 #34
%R: reel
%D:2008
Z: 2020 John Chambers <jc:trillian.mit.edu>
M: C
L: 1/8
K: G
DE \
| G2GB AGED | B2dB cABd | g2fg egdB | cBAG FADF |
| G2GB AGED | B2dB cdef | g2fg egdB | AGAB G2  :|
|: cB \
| A2AB cBAc | BdBG AGED | G2BA GBdg | eceg d2ef |
| gdBd egdB | c2AG FDEF | GBdB Acec | Bdgf g2  :|
%%begintext align
%% Guy Banks
%% is from Philly and I've known him for
%% years. He's an avid contra dancer and
%% always comes to the Ralph Page and
%% Neffa. It's always good to see you, Guy --
%% Happy Dancing!
%%endtext

%%sep 1 1 500

%%sep 1 1 500

